output/footprints/LKBD_KeySwitch.pretty/SW_MX_THT_nSilk.svg

<?xml version="1.0" standalone="no"?>
 <!DOCTYPE svg PUBLIC "-//W3C//DTD SVG 1.1//EN" 
 "http://www.w3.org/Graphics/SVG/1.1/DTD/svg11.dtd"> 
<svg
  xmlns:svg="http://www.w3.org/2000/svg"
  xmlns="http://www.w3.org/2000/svg"
  xmlns:xlink="http://www.w3.org/1999/xlink"
  version="1.1"
  width="19.1262mm" height="20.2946mm" viewBox="0.0000 0.0000 19.1262 20.2946">
<title>SVG Image created as SW_MX_THT_nSilk.svg date 2025/05/13 13:29:23 </title>
  <desc>Image generated by PCBNEW </desc>
<g style="fill:#000000; fill-opacity:1.0000;stroke:#000000; stroke-opacity:1.0000;
stroke-linecap:round; stroke-linejoin:round;"
 transform="translate(0 0) scale(1 1)">
</g>
<g style="fill:none; 
stroke:#E8B2A7; stroke-width:0.1500; stroke-opacity:1; 
stroke-linecap:round; stroke-linejoin:round;">
<text x="9.5750" y="7.0750"
transform="scale(-1 1) translate(-19.150000 0)"
textLength="4.5357" font-size="1.3333" lengthAdjust="spacingAndGlyphs"
text-anchor="middle" opacity="0" stroke-opacity="0">REF**</text>
<g class="stroked-text"><desc>REF**</desc>
<path d="M10.9083 7.0298
L11.2417 6.5536
" />
<path d="M11.4798 7.0298
L11.4798 6.0298
" />
<path d="M11.4798 6.0298
L11.0988 6.0298
" />
<path d="M11.0988 6.0298
L11.0036 6.0774
" />
<path d="M11.0036 6.0774
L10.9560 6.1251
" />
<path d="M10.9560 6.1251
L10.9083 6.2203
" />
<path d="M10.9083 6.2203
L10.9083 6.3632
" />
<path d="M10.9083 6.3632
L10.9560 6.4584
" />
<path d="M10.9560 6.4584
L11.0036 6.5060
" />
<path d="M11.0036 6.5060
L11.0988 6.5536
" />
<path d="M11.0988 6.5536
L11.4798 6.5536
" />
<path d="M10.4798 6.5060
L10.1464 6.5060
" />
<path d="M10.0036 7.0298
L10.4798 7.0298
" />
<path d="M10.4798 7.0298
L10.4798 6.0298
" />
<path d="M10.4798 6.0298
L10.0036 6.0298
" />
<path d="M9.2417 6.5060
L9.5750 6.5060
" />
<path d="M9.5750 7.0298
L9.5750 6.0298
" />
<path d="M9.5750 6.0298
L9.0988 6.0298
" />
<path d="M8.5750 6.0298
L8.5750 6.2679
" />
<path d="M8.8131 6.1727
L8.5750 6.2679
" />
<path d="M8.5750 6.2679
L8.3369 6.1727
" />
<path d="M8.7179 6.4584
L8.5750 6.2679
" />
<path d="M8.5750 6.2679
L8.4321 6.4584
" />
<path d="M7.8131 6.0298
L7.8131 6.2679
" />
<path d="M8.0512 6.1727
L7.8131 6.2679
" />
<path d="M7.8131 6.2679
L7.5750 6.1727
" />
<path d="M7.9560 6.4584
L7.8131 6.2679
" />
<path d="M7.8131 6.2679
L7.6702 6.4584
" />
</g></g>
<g style="fill:#4D7FC4; fill-opacity:1.0000; stroke:none;">
<circle cx="12.1150" cy="4.4950" r="1.1500" /> 
</g>
<g style="fill:#4D7FC4; fill-opacity:1.0000; stroke:none;">
<circle cx="5.7650" cy="7.0350" r="1.1500" /> 
</g>
<g style="fill:#C83434; fill-opacity:1.0000; stroke:none;">
<circle cx="12.1150" cy="4.4950" r="1.1500" /> 
</g>
<g style="fill:#C83434; fill-opacity:1.0000; stroke:none;">
<circle cx="5.7650" cy="7.0350" r="1.1500" /> 
<path style="fill:none; 
stroke:#585D84; stroke-width:0.1000; stroke-opacity:1; 
stroke-linecap:round; stroke-linejoin:round;fill:none"
d="M 7.8250,13.1550
11.3250,13.1550
11.3250,16.1550
7.8250,16.1550
Z" /> 
</g>
<g style="fill:none; 
stroke:#585D84; stroke-width:0.0212; stroke-opacity:1; 
stroke-linecap:round; stroke-linejoin:round;">
<circle cx="4.4950" cy="9.5750" r="0.8500" /> 
</g>
<g style="fill:none; 
stroke:#585D84; stroke-width:0.0212; stroke-opacity:1; 
stroke-linecap:round; stroke-linejoin:round;">
<circle cx="9.5750" cy="9.5750" r="2.0000" /> 
</g>
<g style="fill:none; 
stroke:#585D84; stroke-width:0.0212; stroke-opacity:1; 
stroke-linecap:round; stroke-linejoin:round;">
<circle cx="14.6550" cy="9.5750" r="0.8500" /> 
</g>
<g style="fill:none; 
stroke:#585D84; stroke-width:0.0639; stroke-opacity:1; 
stroke-linecap:round; stroke-linejoin:round;">
<text x="12.1150" y="4.8783"
textLength="0.7685" font-size="1.0222" lengthAdjust="spacingAndGlyphs"
text-anchor="middle" opacity="0" stroke-opacity="0">1</text>
<g class="stroked-text"><desc>1</desc>
<path d="M12.3340 4.8464
L11.8960 4.8464
" />
<path d="M12.1150 4.8464
L12.1150 4.0797
" />
<path d="M12.1150 4.0797
L12.0420 4.1892
" />
<path d="M12.0420 4.1892
L11.9690 4.2622
" />
<path d="M11.9690 4.2622
L11.8960 4.2987
" />
</g></g>
<g style="fill:none; 
stroke:#585D84; stroke-width:0.0212; stroke-opacity:1; 
stroke-linecap:round; stroke-linejoin:round;">
<circle cx="12.1150" cy="4.4950" r="1.1500" /> 
</g>
<g style="fill:none; 
stroke:#585D84; stroke-width:0.0639; stroke-opacity:1; 
stroke-linecap:round; stroke-linejoin:round;">
<text x="5.7650" y="7.4183"
textLength="0.7685" font-size="1.0222" lengthAdjust="spacingAndGlyphs"
text-anchor="middle" opacity="0" stroke-opacity="0">2</text>
<g class="stroked-text"><desc>2</desc>
<path d="M5.5460 6.6927
L5.5825 6.6562
" />
<path d="M5.5825 6.6562
L5.6555 6.6197
" />
<path d="M5.6555 6.6197
L5.8380 6.6197
" />
<path d="M5.8380 6.6197
L5.9110 6.6562
" />
<path d="M5.9110 6.6562
L5.9475 6.6927
" />
<path d="M5.9475 6.6927
L5.9840 6.7657
" />
<path d="M5.9840 6.7657
L5.9840 6.8387
" />
<path d="M5.9840 6.8387
L5.9475 6.9483
" />
<path d="M5.9475 6.9483
L5.5094 7.3864
" />
<path d="M5.5094 7.3864
L5.9840 7.3864
" />
</g></g>
<g style="fill:none; 
stroke:#585D84; stroke-width:0.0212; stroke-opacity:1; 
stroke-linecap:round; stroke-linejoin:round;">
<circle cx="5.7650" cy="7.0350" r="1.1500" /> 
</g>
<g style="fill:none; 
stroke:#AFAFAF; stroke-width:0.1500; stroke-opacity:1; 
stroke-linecap:round; stroke-linejoin:round;">
<text x="9.5750" y="18.3500"
textLength="12.9643" font-size="1.3333" lengthAdjust="spacingAndGlyphs"
text-anchor="middle" opacity="0" stroke-opacity="0">SW_MX_THT_nSilk</text>
<g class="stroked-text"><desc>SW_MX_THT_nSilk</desc>
<path d="M3.4083 18.2572
L3.5512 18.3048
" />
<path d="M3.5512 18.3048
L3.7893 18.3048
" />
<path d="M3.7893 18.3048
L3.8845 18.2572
" />
<path d="M3.8845 18.2572
L3.9321 18.2096
" />
<path d="M3.9321 18.2096
L3.9798 18.1143
" />
<path d="M3.9798 18.1143
L3.9798 18.0191
" />
<path d="M3.9798 18.0191
L3.9321 17.9239
" />
<path d="M3.9321 17.9239
L3.8845 17.8762
" />
<path d="M3.8845 17.8762
L3.7893 17.8286
" />
<path d="M3.7893 17.8286
L3.5988 17.7810
" />
<path d="M3.5988 17.7810
L3.5036 17.7334
" />
<path d="M3.5036 17.7334
L3.4560 17.6858
" />
<path d="M3.4560 17.6858
L3.4083 17.5905
" />
<path d="M3.4083 17.5905
L3.4083 17.4953
" />
<path d="M3.4083 17.4953
L3.4560 17.4001
" />
<path d="M3.4560 17.4001
L3.5036 17.3524
" />
<path d="M3.5036 17.3524
L3.5988 17.3048
" />
<path d="M3.5988 17.3048
L3.8369 17.3048
" />
<path d="M3.8369 17.3048
L3.9798 17.3524
" />
<path d="M4.3131 17.3048
L4.5512 18.3048
" />
<path d="M4.5512 18.3048
L4.7417 17.5905
" />
<path d="M4.7417 17.5905
L4.9321 18.3048
" />
<path d="M4.9321 18.3048
L5.1702 17.3048
" />
<path d="M5.3131 18.4001
L6.0750 18.4001
" />
<path d="M6.3131 18.3048
L6.3131 17.3048
" />
<path d="M6.3131 17.3048
L6.6464 18.0191
" />
<path d="M6.6464 18.0191
L6.9798 17.3048
" />
<path d="M6.9798 17.3048
L6.9798 18.3048
" />
<path d="M7.3607 17.3048
L8.0274 18.3048
" />
<path d="M8.0274 17.3048
L7.3607 18.3048
" />
<path d="M8.1702 18.4001
L8.9321 18.4001
" />
<path d="M9.0274 17.3048
L9.5988 17.3048
" />
<path d="M9.3131 18.3048
L9.3131 17.3048
" />
<path d="M9.9321 18.3048
L9.9321 17.3048
" />
<path d="M9.9321 17.7810
L10.5036 17.7810
" />
<path d="M10.5036 18.3048
L10.5036 17.3048
" />
<path d="M10.8369 17.3048
L11.4083 17.3048
" />
<path d="M11.1226 18.3048
L11.1226 17.3048
" />
<path d="M11.5036 18.4001
L12.2655 18.4001
" />
<path d="M12.5036 17.6382
L12.5036 18.3048
" />
<path d="M12.5036 17.7334
L12.5512 17.6858
" />
<path d="M12.5512 17.6858
L12.6464 17.6382
" />
<path d="M12.6464 17.6382
L12.7893 17.6382
" />
<path d="M12.7893 17.6382
L12.8845 17.6858
" />
<path d="M12.8845 17.6858
L12.9321 17.7810
" />
<path d="M12.9321 17.7810
L12.9321 18.3048
" />
<path d="M13.3607 18.2572
L13.5036 18.3048
" />
<path d="M13.5036 18.3048
L13.7417 18.3048
" />
<path d="M13.7417 18.3048
L13.8369 18.2572
" />
<path d="M13.8369 18.2572
L13.8845 18.2096
" />
<path d="M13.8845 18.2096
L13.9321 18.1143
" />
<path d="M13.9321 18.1143
L13.9321 18.0191
" />
<path d="M13.9321 18.0191
L13.8845 17.9239
" />
<path d="M13.8845 17.9239
L13.8369 17.8762
" />
<path d="M13.8369 17.8762
L13.7417 17.8286
" />
<path d="M13.7417 17.8286
L13.5512 17.7810
" />
<path d="M13.5512 17.7810
L13.4560 17.7334
" />
<path d="M13.4560 17.7334
L13.4083 17.6858
" />
<path d="M13.4083 17.6858
L13.3607 17.5905
" />
<path d="M13.3607 17.5905
L13.3607 17.4953
" />
<path d="M13.3607 17.4953
L13.4083 17.4001
" />
<path d="M13.4083 17.4001
L13.4560 17.3524
" />
<path d="M13.4560 17.3524
L13.5512 17.3048
" />
<path d="M13.5512 17.3048
L13.7893 17.3048
" />
<path d="M13.7893 17.3048
L13.9321 17.3524
" />
<path d="M14.3607 18.3048
L14.3607 17.6382
" />
<path d="M14.3607 17.3048
L14.3131 17.3524
" />
<path d="M14.3131 17.3524
L14.3607 17.4001
" />
<path d="M14.3607 17.4001
L14.4083 17.3524
" />
<path d="M14.4083 17.3524
L14.3607 17.3048
" />
<path d="M14.3607 17.3048
L14.3607 17.4001
" />
<path d="M14.9798 18.3048
L14.8845 18.2572
" />
<path d="M14.8845 18.2572
L14.8369 18.1620
" />
<path d="M14.8369 18.1620
L14.8369 17.3048
" />
<path d="M15.3607 18.3048
L15.3607 17.3048
" />
<path d="M15.4560 17.9239
L15.7417 18.3048
" />
<path d="M15.7417 17.6382
L15.3607 18.0191
" />
</g><text x="9.5750" y="19.9500"
textLength="4.5357" font-size="1.3333" lengthAdjust="spacingAndGlyphs"
text-anchor="middle" opacity="0" stroke-opacity="0">REF**</text>
<g class="stroked-text"><desc>REF**</desc>
<path d="M8.2417 19.9048
L7.9083 19.4286
" />
<path d="M7.6702 19.9048
L7.6702 18.9048
" />
<path d="M7.6702 18.9048
L8.0512 18.9048
" />
<path d="M8.0512 18.9048
L8.1464 18.9524
" />
<path d="M8.1464 18.9524
L8.1940 19.0001
" />
<path d="M8.1940 19.0001
L8.2417 19.0953
" />
<path d="M8.2417 19.0953
L8.2417 19.2382
" />
<path d="M8.2417 19.2382
L8.1940 19.3334
" />
<path d="M8.1940 19.3334
L8.1464 19.3810
" />
<path d="M8.1464 19.3810
L8.0512 19.4286
" />
<path d="M8.0512 19.4286
L7.6702 19.4286
" />
<path d="M8.6702 19.3810
L9.0036 19.3810
" />
<path d="M9.1464 19.9048
L8.6702 19.9048
" />
<path d="M8.6702 19.9048
L8.6702 18.9048
" />
<path d="M8.6702 18.9048
L9.1464 18.9048
" />
<path d="M9.9083 19.3810
L9.5750 19.3810
" />
<path d="M9.5750 19.9048
L9.5750 18.9048
" />
<path d="M9.5750 18.9048
L10.0512 18.9048
" />
<path d="M10.5750 18.9048
L10.5750 19.1429
" />
<path d="M10.3369 19.0477
L10.5750 19.1429
" />
<path d="M10.5750 19.1429
L10.8131 19.0477
" />
<path d="M10.4321 19.3334
L10.5750 19.1429
" />
<path d="M10.5750 19.1429
L10.7179 19.3334
" />
<path d="M11.3369 18.9048
L11.3369 19.1429
" />
<path d="M11.0988 19.0477
L11.3369 19.1429
" />
<path d="M11.3369 19.1429
L11.5750 19.0477
" />
<path d="M11.1940 19.3334
L11.3369 19.1429
" />
<path d="M11.3369 19.1429
L11.4798 19.3334
" />
</g><path style="fill:none; 
stroke:#AFAFAF; stroke-width:0.1000; stroke-opacity:1; 
stroke-linecap:round; stroke-linejoin:round;fill:none"
d="M 2.5750,2.5750
16.5750,2.5750
16.5750,16.5750
2.5750,16.5750
Z" /> 
</g>
<g style="fill:none; 
stroke:#AFAFAF; stroke-width:0.0212; stroke-opacity:1; 
stroke-linecap:round; stroke-linejoin:round;">
<circle cx="4.4950" cy="9.5750" r="0.8500" /> 
</g>
<g style="fill:none; 
stroke:#AFAFAF; stroke-width:0.0212; stroke-opacity:1; 
stroke-linecap:round; stroke-linejoin:round;">
<circle cx="9.5750" cy="9.5750" r="2.0000" /> 
</g>
<g style="fill:none; 
stroke:#AFAFAF; stroke-width:0.0212; stroke-opacity:1; 
stroke-linecap:round; stroke-linejoin:round;">
<circle cx="14.6550" cy="9.5750" r="0.8500" /> 
</g>
<g style="fill:none; 
stroke:#AFAFAF; stroke-width:0.0639; stroke-opacity:1; 
stroke-linecap:round; stroke-linejoin:round;">
<text x="12.1150" y="4.8783"
textLength="0.7685" font-size="1.0222" lengthAdjust="spacingAndGlyphs"
text-anchor="middle" opacity="0" stroke-opacity="0">1</text>
<g class="stroked-text"><desc>1</desc>
<path d="M12.3340 4.8464
L11.8960 4.8464
" />
<path d="M12.1150 4.8464
L12.1150 4.0797
" />
<path d="M12.1150 4.0797
L12.0420 4.1892
" />
<path d="M12.0420 4.1892
L11.9690 4.2622
" />
<path d="M11.9690 4.2622
L11.8960 4.2987
" />
</g></g>
<g style="fill:none; 
stroke:#AFAFAF; stroke-width:0.0212; stroke-opacity:1; 
stroke-linecap:round; stroke-linejoin:round;">
<circle cx="12.1150" cy="4.4950" r="1.1500" /> 
</g>
<g style="fill:none; 
stroke:#AFAFAF; stroke-width:0.0639; stroke-opacity:1; 
stroke-linecap:round; stroke-linejoin:round;">
<text x="5.7650" y="7.4183"
textLength="0.7685" font-size="1.0222" lengthAdjust="spacingAndGlyphs"
text-anchor="middle" opacity="0" stroke-opacity="0">2</text>
<g class="stroked-text"><desc>2</desc>
<path d="M5.5460 6.6927
L5.5825 6.6562
" />
<path d="M5.5825 6.6562
L5.6555 6.6197
" />
<path d="M5.6555 6.6197
L5.8380 6.6197
" />
<path d="M5.8380 6.6197
L5.9110 6.6562
" />
<path d="M5.9110 6.6562
L5.9475 6.6927
" />
<path d="M5.9475 6.6927
L5.9840 6.7657
" />
<path d="M5.9840 6.7657
L5.9840 6.8387
" />
<path d="M5.9840 6.8387
L5.9475 6.9483
" />
<path d="M5.9475 6.9483
L5.5094 7.3864
" />
<path d="M5.5094 7.3864
L5.9840 7.3864
" />
</g></g>
<g style="fill:none; 
stroke:#AFAFAF; stroke-width:0.0212; stroke-opacity:1; 
stroke-linecap:round; stroke-linejoin:round;">
<circle cx="5.7650" cy="7.0350" r="1.1500" /> 
<path style="fill:none; 
stroke:#C2C2C2; stroke-width:0.1000; stroke-opacity:1; 
stroke-linecap:round; stroke-linejoin:round;fill:none"
d="M 0.0500,0.0500
19.1000,0.0500
19.1000,19.1000
0.0500,19.1000
Z" /> 
</g> 
</svg>

<svg xmlns="http://www.w3.org/2000/svg" width="72.288" height="76.704" viewBox="0 0 19.126 20.295">
    <g class="stroked-text" style="fill:none;stroke:#e8b2a7;stroke-width:.15;stroke-opacity:1;stroke-linecap:round;stroke-linejoin:round">
        <path d="m10.908 7.03.334-.476M11.48 7.03v-1M11.48 6.03h-.381M11.099 6.03l-.095.047M11.004 6.077l-.048.048M10.956 6.125l-.048.095M10.908 6.22v.143M10.908 6.363l.048.095M10.956 6.458l.048.048M11.004 6.506l.095.048M11.099 6.554h.38M10.48 6.506h-.334M10.004 7.03h.476M10.48 7.03v-1M10.48 6.03h-.476M9.242 6.506h.333M9.575 7.03v-1M9.575 6.03h-.476M8.575 6.03v.238M8.813 6.173l-.238.095M8.575 6.268l-.238-.095M8.718 6.458l-.143-.19M8.575 6.268l-.143.19M7.813 6.03v.238M8.051 6.173l-.238.095M7.813 6.268l-.238-.095M7.956 6.458l-.143-.19M7.813 6.268l-.143.19"/>
    </g>
    <circle cx="12.115" cy="4.495" r="1.15" style="fill:#4d7fc4;fill-opacity:1;stroke:none"/>
    <circle cx="5.765" cy="7.035" r="1.15" style="fill:#4d7fc4;fill-opacity:1;stroke:none"/>
    <circle cx="12.115" cy="4.495" r="1.15" style="fill:#c83434;fill-opacity:1;stroke:none"/>
    <g style="fill:#c83434;fill-opacity:1;stroke:none">
        <circle cx="5.765" cy="7.035" r="1.15"/>
        <path d="M7.825 13.155h3.5v3h-3.5Z" style="stroke:#585d84;stroke-width:.1;stroke-opacity:1;stroke-linecap:round;stroke-linejoin:round;fill:none"/>
    </g>
    <circle cx="4.495" cy="9.575" r=".85" style="fill:none;stroke:#585d84;stroke-width:.0212;stroke-opacity:1;stroke-linecap:round;stroke-linejoin:round"/>
    <circle cx="9.575" cy="9.575" r="2" style="fill:none;stroke:#585d84;stroke-width:.0212;stroke-opacity:1;stroke-linecap:round;stroke-linejoin:round"/>
    <circle cx="14.655" cy="9.575" r=".85" style="fill:none;stroke:#585d84;stroke-width:.0212;stroke-opacity:1;stroke-linecap:round;stroke-linejoin:round"/>
    <g class="stroked-text" style="fill:none;stroke:#585d84;stroke-width:.0639;stroke-opacity:1;stroke-linecap:round;stroke-linejoin:round">
        <path d="M12.334 4.846h-.438M12.115 4.846V4.08M12.115 4.08l-.073.11M12.042 4.19l-.073.072M11.969 4.262l-.073.037"/>
    </g>
    <circle cx="12.115" cy="4.495" r="1.15" style="fill:none;stroke:#585d84;stroke-width:.0212;stroke-opacity:1;stroke-linecap:round;stroke-linejoin:round"/>
    <g class="stroked-text" style="fill:none;stroke:#585d84;stroke-width:.0639;stroke-opacity:1;stroke-linecap:round;stroke-linejoin:round">
        <path d="m5.546 6.693.036-.037M5.583 6.656l.072-.036M5.656 6.62h.182M5.838 6.62l.073.036M5.911 6.656l.037.037M5.948 6.693l.036.073M5.984 6.766v.073M5.984 6.839l-.037.11M5.948 6.948l-.439.438M5.51 7.386h.474"/>
    </g>
    <circle cx="5.765" cy="7.035" r="1.15" style="fill:none;stroke:#585d84;stroke-width:.0212;stroke-opacity:1;stroke-linecap:round;stroke-linejoin:round"/>
    <g style="fill:none;stroke:#afafaf;stroke-width:.15;stroke-opacity:1;stroke-linecap:round;stroke-linejoin:round">
        <g class="stroked-text">
            <path d="m3.408 18.257.143.048M3.551 18.305h.238M3.79 18.305l.095-.048M3.885 18.257l.047-.047M3.932 18.21l.048-.096M3.98 18.114v-.095M3.98 18.02l-.048-.096M3.932 17.924l-.047-.048M3.885 17.876l-.096-.047M3.79 17.829l-.191-.048M3.599 17.781l-.095-.048M3.504 17.733l-.048-.047M3.456 17.686l-.048-.096M3.408 17.59v-.095M3.408 17.495l.048-.095M3.456 17.4l.048-.048M3.504 17.352l.095-.047M3.599 17.305h.238M3.837 17.305l.143.047M4.313 17.305l.238 1M4.551 18.305l.19-.715M4.742 17.59l.19.715M4.932 18.305l.238-1M5.313 18.4h.762M6.313 18.305v-1M6.313 17.305l.333.714M6.646 18.02l.334-.715M6.98 17.305v1M7.36 17.305l.667 1M8.027 17.305l-.666 1M8.17 18.4h.762M9.027 17.305H9.6M9.313 18.305v-1M9.932 18.305v-1M9.932 17.781h.572M10.504 18.305v-1M10.837 17.305h.571M11.123 18.305v-1M11.504 18.4h.761M12.504 17.638v.667M12.504 17.733l.047-.047M12.551 17.686l.095-.048M12.646 17.638h.143M12.79 17.638l.095.048M12.885 17.686l.047.095M12.932 17.781v.524M13.36 18.257l.144.048M13.504 18.305h.238M13.742 18.305l.095-.048M13.837 18.257l.047-.047M13.885 18.21l.047-.096M13.932 18.114v-.095M13.932 18.02l-.048-.096M13.885 17.924l-.048-.048M13.837 17.876l-.095-.047M13.742 17.829l-.19-.048M13.551 17.781l-.095-.048M13.456 17.733l-.048-.047M13.408 17.686l-.047-.096M13.36 17.59v-.095M13.36 17.495l.048-.095M13.408 17.4l.048-.048M13.456 17.352l.095-.047M13.551 17.305h.238M13.79 17.305l.142.047M14.36 18.305v-.667M14.36 17.305l-.047.047M14.313 17.352l.048.048M14.36 17.4l.048-.048M14.408 17.352l-.047-.047M14.36 17.305v.095M14.98 18.305l-.096-.048M14.885 18.257l-.048-.095M14.837 18.162v-.857M15.36 18.305v-1M15.456 17.924l.286.38M15.742 17.638l-.381.381"/>
        </g>
        <g class="stroked-text">
            <path d="m8.242 19.905-.334-.476M7.67 19.905v-1M7.67 18.905h.381M8.051 18.905l.095.047M8.146 18.952l.048.048M8.194 19l.048.095M8.242 19.095v.143M8.242 19.238l-.048.095M8.194 19.333l-.048.048M8.146 19.381l-.095.048M8.051 19.429h-.38M8.67 19.381h.334M9.146 19.905H8.67M8.67 19.905v-1M8.67 18.905h.476M9.908 19.381h-.333M9.575 19.905v-1M9.575 18.905h.476M10.575 18.905v.238M10.337 19.048l.238.095M10.575 19.143l.238-.095M10.432 19.333l.143-.19M10.575 19.143l.143.19M11.337 18.905v.238M11.099 19.048l.238.095M11.337 19.143l.238-.095M11.194 19.333l.143-.19M11.337 19.143l.143.19"/>
        </g>
        <path d="M2.575 2.575h14v14h-14Z" style="stroke:#afafaf;stroke-width:.1;stroke-opacity:1;stroke-linecap:round;stroke-linejoin:round;fill:none"/>
    </g>
    <circle cx="4.495" cy="9.575" r=".85" style="fill:none;stroke:#afafaf;stroke-width:.0212;stroke-opacity:1;stroke-linecap:round;stroke-linejoin:round"/>
    <circle cx="9.575" cy="9.575" r="2" style="fill:none;stroke:#afafaf;stroke-width:.0212;stroke-opacity:1;stroke-linecap:round;stroke-linejoin:round"/>
    <circle cx="14.655" cy="9.575" r=".85" style="fill:none;stroke:#afafaf;stroke-width:.0212;stroke-opacity:1;stroke-linecap:round;stroke-linejoin:round"/>
    <g class="stroked-text" style="fill:none;stroke:#afafaf;stroke-width:.0639;stroke-opacity:1;stroke-linecap:round;stroke-linejoin:round">
        <path d="M12.334 4.846h-.438M12.115 4.846V4.08M12.115 4.08l-.073.11M12.042 4.19l-.073.072M11.969 4.262l-.073.037"/>
    </g>
    <circle cx="12.115" cy="4.495" r="1.15" style="fill:none;stroke:#afafaf;stroke-width:.0212;stroke-opacity:1;stroke-linecap:round;stroke-linejoin:round"/>
    <g class="stroked-text" style="fill:none;stroke:#afafaf;stroke-width:.0639;stroke-opacity:1;stroke-linecap:round;stroke-linejoin:round">
        <path d="m5.546 6.693.036-.037M5.583 6.656l.072-.036M5.656 6.62h.182M5.838 6.62l.073.036M5.911 6.656l.037.037M5.948 6.693l.036.073M5.984 6.766v.073M5.984 6.839l-.037.11M5.948 6.948l-.439.438M5.51 7.386h.474"/>
    </g>
    <g style="fill:none;stroke:#afafaf;stroke-width:.0212;stroke-opacity:1;stroke-linecap:round;stroke-linejoin:round">
        <circle cx="5.765" cy="7.035" r="1.15"/>
        <path d="M.05.05H19.1V19.1H.05Z" style="stroke:#c2c2c2;stroke-width:.1;stroke-opacity:1;stroke-linecap:round;stroke-linejoin:round;fill:none"/>
    </g>
</svg>
